X:1
T:Title
%%score { ( 1 4 ) | ( 2 3 ) }
L:1/8
M:4/4
K:F
V:1 treble nm="Grand Piano"
V:4 treble 
V:2 bass 
V:3 bass 
V:1
 z4 z2[Q:1/4=112] A2 | A2 F2 [EG]2 E2 | F2 C4 F2 | [EG]2 [EG]2 [DF]2 [EG]2 | A6 A2 | %5
 A2 F2 [EG]2 E2 | F2 C4 A2 | G2 c2 [CE]2 [=B,D]2 | C6 C2 | C2 D2 E2 F2 |[M:3/4] [EG]6 | A2 A2 F2 | %12
 A2 [CEG]2 [CE]2 | [B,EG]2 [A,F]4 | [A,_EF]2 [B,DF]2 [B,D]2 | [B,DF]2 [A,CF]2 [A,C]2 | %16
 [A,CF]2 [G,CE]4 | [CEG]2 [CEG]2 [CE]2 | [B,EG]2 F2- [FA]2 | c2 c2 G2 | [CEB]2 F2- [Fc]2 | %21
 d2 c2 A2 | [DB]2 [CFA]2 F2 |[M:2/4] [B,EG]2 [A,F]2- | [A,F]2 z2 |] %25
V:2
 z4 z2 [F,CF]2 | [F,CF]2 [F,A,]2 [C,B,]2 [C,G,C]2 | [F,A,C]2 [F,A,]4 [F,A,C]2 | %3
 [C,C]2 [C,C]2 [D,A,]2 [C,C]2 | [F,CF]6 [F,CF]2 | [F,CF]2 [F,A,]2 [C,B,]2 [C,G,C]2 | %6
 [F,A,C]2 [F,A,]4 [F,CF]2 | [G,CE]2 [G,E]2 [G,,G,]2 [G,,F,]2 | [C,E,]6 [C,E,]2 | %9
 [C,E,]2 [C,F,C]2 [C,G,C]2 [C,A,C]2 |[M:3/4] [C,C]6 | [F,CF]2 [CF]2 [A,C]2 | [F,CF]2 z2 G,2 | %13
 C,2 F,4 | F,2 z2 F,2 | B,,2 F,2 F,2 | F,2 C,4 | C,2 z2 G,2 | C,2 z2 C2 | [F,A,F]2 G,2 C2 | %20
 C,2 z2 A,2 | [F,B,F]2 [F,F]2- [F,CF]2 | B,,2 z2 A,2 |[M:2/4] C,2 F,2- | F,2 z2 |] %25
V:3
 x8 | x8 | x8 | x8 | x8 | x8 | x8 | x8 | x8 | x8 |[M:3/4] x6 | z2 F,4 | z2 C,4 | x6 | z2 B,,4 | %15
 x6 | x6 | z2 C,4 | z2 F,4 | z2 C,4 | z2 F,4 | z2 A,2 z2 | z2 C,4 |[M:2/4] x4 | x4 |] %25
V:4
 x8 | x8 | x8 | x8 | x8 | x8 | x8 | x8 | x8 | x8 |[M:3/4] x6 | x6 | x6 | x6 | x6 | x6 | x6 | x6 | %18
 z2 A,2 z2 | z2 E4 | z2 [CA]2 z2 | x6 | x6 |[M:2/4] x4 | x4 |] %25

